static/img/mobile/status-bar-blue.svg

<svg fill="none" height="163" viewBox="0 0 447 163" width="447" xmlns="http://www.w3.org/2000/svg" xmlns:xlink="http://www.w3.org/1999/xlink"><clipPath id="a"><path d="m322 36.5h20v20h-20z"/></clipPath><clipPath id="b"><path d="m347 36.5h20v20h-20z"/></clipPath><clipPath id="c"><path d="m372 36.5h20v20h-20z"/></clipPath><clipPath id="d"><path d="m322 95.5h21v21h-21z"/></clipPath><clipPath id="e"><path d="m348 95.5h21v21h-21z"/></clipPath><clipPath id="f"><path d="m374 95.5h21v21h-21z"/></clipPath><rect fill="#f1f1f6" height="163" rx="8" width="447"/><path d="m40 34.5h360v24h-360z" fill="#004f83"/><path d="m53.874 40.814v10.686h-2.1094v-8.2544l-2.5341.8057v-1.6626l4.4165-1.5747zm10.4666 9.0381v1.6479h-7.2949v-1.4062l3.4497-3.6988c.3467-.3857.6201-.7251.8203-1.018.2002-.2979.3443-.564.4322-.7984.0927-.2392.1391-.4663.1391-.6811 0-.3223-.0537-.5982-.1611-.8277-.1074-.2344-.2661-.415-.4761-.542-.2051-.1269-.459-.1904-.7617-.1904-.3223 0-.6006.0781-.835.2344-.2295.1562-.4052.3735-.5273.6518-.1172.2784-.1758.5933-.1758.9449h-2.1167c0-.6348.1514-1.2159.4541-1.7432.3027-.5322.73-.9546 1.2817-1.2671.5518-.3174 1.2061-.4761 1.9629-.4761.7471 0 1.377.1221 1.8897.3662.5176.2393.9082.586 1.1719 1.0401.2685.4492.4028.9863.4028 1.6113 0 .3516-.0562.6958-.1685 1.0327-.1123.3321-.2734.6641-.4834.9961-.205.3272-.4541.6592-.747.9961-.293.3369-.6177.686-.9742 1.0474l-1.853 2.0801zm1.1868.6298c0-.3125.1075-.5737.3223-.7837.2197-.2099.5103-.3149.8716-.3149s.6494.105.8642.3149c.2198.21.3296.4712.3296.7837s-.1098.5738-.3296.7837c-.2148.21-.5029.315-.8642.315s-.6519-.105-.8716-.315c-.2148-.2099-.3223-.4712-.3223-.7837zm0-6.0424c0-.3125.1075-.5738.3223-.7837.2197-.21.5103-.315.8716-.315s.6494.105.8642.315c.2198.2099.3296.4712.3296.7837s-.1098.5737-.3296.7836c-.2148.21-.5029.315-.8642.315s-.6519-.105-.8716-.315c-.2148-.2099-.3223-.4711-.3223-.7836zm11.2357 3.0761v1.6553h-7.6831l-.1026-1.2817 4.4458-7.0533h1.6773l-1.8164 3.0396-2.2119 3.6401zm-1.2085-6.6797v10.6641h-2.1094v-10.6641zm9.2361 7.7417c0 .669-.1562 1.2329-.4687 1.6919-.3125.4541-.7422.7984-1.2891 1.0327-.542.2295-1.1572.3443-1.8457.3443s-1.3061-.1148-1.853-.3443c-.5469-.2343-.979-.5786-1.2964-1.0327-.3174-.459-.4761-1.0229-.4761-1.6919 0-.4492.0904-.8545.271-1.2158.1807-.3662.4321-.6787.7544-.9375.3272-.2637.7105-.4639 1.1499-.6006.4395-.1416.918-.2124 1.4356-.2124.6933 0 1.3134.1221 1.8603.3662.5469.2442.9766.5884 1.2891 1.0328.3125.4443.4687.9668.4687 1.5673zm-2.124-.1391c0-.3272-.0635-.6079-.1904-.8423-.1221-.2393-.2954-.4224-.5201-.5493-.2246-.127-.4858-.1905-.7836-.1905-.2979 0-.5591.0635-.7837.1905-.2246.1269-.4004.31-.5274.5493-.122.2344-.1831.5151-.1831.8423 0 .3222.0611.6006.1831.8349.127.2344.3028.4151.5274.542.2295.1221.4956.1831.7983.1831s.564-.061.7837-.1831c.2246-.1269.3955-.3076.5127-.542.1221-.2343.1831-.5127.1831-.8349zm1.897-4.7754c0 .542-.1441 1.0229-.4322 1.4429-.288.415-.6884.7397-1.2011.9741-.5078.2344-1.0889.3515-1.7432.3515-.6592 0-1.2451-.1171-1.7578-.3515s-.9131-.5591-1.2012-.9741c-.2881-.42-.4321-.9009-.4321-1.4429 0-.6445.144-1.1865.4321-1.626.293-.4443.6934-.7812 1.2012-1.0107.5127-.2295 1.0937-.3443 1.7432-.3443.6591 0 1.2426.1148 1.7504.3443.5127.2295.9131.5664 1.2012 1.0107.293.4395.4395.9815.4395 1.626zm-2.1094.0952c0-.2881-.0513-.5371-.1538-.7471-.1026-.2148-.249-.3808-.4395-.498-.1855-.1172-.415-.1758-.6884-.1758-.2637 0-.4908.0562-.6812.1685-.1855.1123-.3296.2758-.4321.4907-.0977.2099-.1465.4638-.1465.7617 0 .2881.0488.542.1465.7617.1025.2149.249.3833.4394.5054.1905.1221.42.1831.6885.1831.2686 0 .4956-.061.6812-.1831.1904-.1221.3344-.2905.4321-.5054.1025-.2197.1538-.4736.1538-.7617z" fill="#fff"/><g clip-path="url(#a)"><path d="m332 39.8334c-3.908 0-7.442 1.5833-10 4.15l10 10.0166 10-10.0166c-2.558-2.5667-6.092-4.15-10-4.15z" fill="#fff"/></g><g clip-path="url(#b)"><path d="m348.666 54.8333h16.667v-16.6667z" fill="#fff"/></g><g clip-path="url(#c)"><path d="m386.167 40.6666v13.3334c0 .4583-.375.8333-.833.8333h-6.667c-.458 0-.833-.375-.833-.8333v-13.3334c0-.4583.375-.8333.833-.8333h1.667v-1.6667h3.333v1.6667h1.667c.458 0 .833.375.833.8333zm-1.666.8334h-5v3.3333h5z" fill="#fff"/></g><path d="m40 83.5h367v45h-367z" fill="#004f83"/><path d="m55.6914 111h1.8897v-10.569h-1.8824l-2.7612 1.941v1.78l2.6294-1.86h.1245zm4.5267 0h7.3388v-1.567h-4.7827v-.154l2.1167-2.051c1.9263-1.853 2.5049-2.805 2.5049-4.006v-.022c0-1.78-1.4795-3.033-3.5376-3.033-2.2046 0-3.7427 1.377-3.7427 3.348l.0074.022 1.7578.007.0073-.029c0-1.092.7544-1.831 1.875-1.831 1.0986 0 1.7651.703 1.7651 1.677v.022c0 .813-.4028 1.347-1.8384 2.798l-3.4716 3.545zm10.4959-6.848c.6738 0 1.1645-.513 1.1645-1.157 0-.652-.4907-1.158-1.1645-1.158-.6665 0-1.1646.506-1.1646 1.158 0 .644.4981 1.157 1.1646 1.157zm0 5.434c.6738 0 1.1645-.505 1.1645-1.157s-.4907-1.157-1.1645-1.157c-.6665 0-1.1646.505-1.1646 1.157s.4981 1.157 1.1646 1.157zm8.1521 1.414h1.8091v-2.029h1.4209v-1.56h-1.4209v-6.98h-2.6733c-1.4356 2.183-2.9371 4.614-4.3067 6.995v1.545h5.1709zm-3.4131-3.545v-.11c1.0254-1.794 2.2486-3.75 3.3325-5.405h.1099v5.515zm12.2611 3.757c2.4316 0 4.1235-1.259 4.1235-3.068v-.015c0-1.355-.9814-2.402-2.395-2.688v-.044c1.2085-.322 2.0141-1.209 2.0141-2.344v-.014c0-1.626-1.5527-2.82-3.7426-2.82-2.19 0-3.7427 1.194-3.7427 2.82v.014c0 1.135.8057 2.022 2.0141 2.344v.044c-1.4062.286-2.395 1.333-2.395 2.688v.015c0 1.809 1.6919 3.068 4.1236 3.068zm0-6.416c-1.106 0-1.875-.644-1.875-1.567v-.015c0-.922.769-1.567 1.875-1.567 1.1059 0 1.875.645 1.875 1.567v.015c0 .923-.7691 1.567-1.875 1.567zm0 4.974c-1.2671 0-2.168-.733-2.168-1.751v-.015c0-1.025.8862-1.765 2.168-1.765 1.2744 0 2.1679.74 2.1679 1.765v.015c0 1.018-.9008 1.751-2.1679 1.751z" fill="#fff"/><g clip-path="url(#d)"><path d="m330.855 105.274h-1.566c-.411 0-.683.288-.683.708v4.935c0 .42.272.709.683.709h1.566c.411 0 .682-.289.682-.709v-4.935c0-.42-.271-.708-.682-.708zm-4.856 2.03h-1.566c-.412 0-.683.28-.683.7v2.913c0 .42.271.709.683.709h1.566c.411 0 .682-.289.682-.709v-2.913c0-.42-.271-.7-.682-.7zm9.712-4.375h-1.566c-.411 0-.682.288-.682.708v7.28c0 .42.271.709.682.709h1.566c.403 0 .683-.289.683-.709v-7.28c0-.42-.28-.708-.683-.708zm4.865-2.564h-1.575c-.402 0-.682.289-.682.709v9.843c0 .42.28.709.682.709h1.575c.403 0 .674-.289.674-.709v-9.843c0-.42-.271-.709-.674-.709z" fill="#fff"/></g><g clip-path="url(#e)"><path d="m358.501 108.564c-1.103 0-2.039.577-2.529 1.242-.079.123-.044.263.079.377l1.846 1.776c.298.28.438.367.604.367s.315-.078.604-.367l1.855-1.776c.113-.114.14-.28.035-.42-.49-.639-1.427-1.19-2.503-1.19zm0-4.445c-2.371 0-4.498 1.059-5.644 2.459-.114.14-.105.288.026.428l1.182 1.182c.166.157.376.14.525-.027.91-1.015 2.397-1.75 3.92-1.741 1.531 0 3.027.753 3.955 1.768.14.157.323.148.49 0l1.181-1.173c.122-.122.14-.289.026-.429-1.146-1.408-3.272-2.458-5.644-2.458zm8.671-.604c-1.785-2.205-5.145-3.8237-8.671-3.8237s-6.895 1.6187-8.671 3.8237c-.105.131-.105.298.026.438l1.05 1.067c.149.149.367.149.507 0 1.873-1.986 4.332-3.036 7.088-3.036s5.25 1.059 7.105 3.036c.14.14.341.131.49-.017l1.05-1.05c.14-.14.131-.307.026-.438z" fill="#fff" opacity=".85"/></g><g clip-path="url(#f)"><path d="m385.594 103.637h-7.149c-.42 0-.665.062-.831.228-.158.166-.228.411-.228.822v2.643c0 .411.062.647.228.814.166.166.411.227.814.227h7.166c.411 0 .647-.061.814-.227.166-.167.227-.403.227-.814v-2.651c0-.412-.061-.648-.227-.814-.167-.166-.403-.228-.814-.228zm2.598-1.636h-9.301c-.997 0-1.846.096-2.45.7s-.691 1.453-.691 2.433v1.715c0 1.015.087 1.846.691 2.45.604.603 1.453.7 2.459.7h9.292c1.015 0 1.864-.097 2.468-.7.604-.604.691-1.444.691-2.45v-1.698c0-1.015-.087-1.846-.691-2.45s-1.453-.7-2.468-.7zm2.206 5.005c0 .613-.079 1.243-.438 1.601-.359.359-.998.438-1.601.438h-9.616c-.613 0-1.252-.079-1.611-.438-.358-.358-.428-.997-.428-1.601v-2.004c0-.621.078-1.251.428-1.61.359-.358 1.007-.437 1.628-.437h9.599c.612 0 1.251.079 1.601.437.359.359.438.989.438 1.593zm1.758-2.537v3.053c.464-.026 1.094-.63 1.094-1.531s-.63-1.496-1.094-1.522z" fill="#fff" opacity=".85"/></g></svg>

<svg width="447" height="163" viewBox="0 0 447 163" fill="none" xmlns="http://www.w3.org/2000/svg"><rect width="447" height="163" rx="8" fill="#F1F1F6"/><rect width="360" height="24" transform="translate(40 34.5)" fill="#004F83"/><path d="M53.874 40.814V51.5H51.7646V43.2456L49.2305 44.0513V42.3887L53.647 40.814H53.874ZM64.3406 49.8521V51.5H57.0457V50.0938L60.4954 46.395C60.8421 46.0093 61.1155 45.6699 61.3157 45.377C61.5159 45.0791 61.66 44.813 61.7479 44.5786C61.8406 44.3394 61.887 44.1123 61.887 43.8975C61.887 43.5752 61.8333 43.2993 61.7259 43.0698C61.6185 42.8354 61.4598 42.6548 61.2498 42.5278C61.0447 42.4009 60.7908 42.3374 60.4881 42.3374C60.1658 42.3374 59.8875 42.4155 59.6531 42.5718C59.4236 42.728 59.2479 42.9453 59.1258 43.2236C59.0086 43.502 58.95 43.8169 58.95 44.1685H56.8333C56.8333 43.5337 56.9847 42.9526 57.2874 42.4253C57.5901 41.8931 58.0174 41.4707 58.5691 41.1582C59.1209 40.8408 59.7752 40.6821 60.532 40.6821C61.2791 40.6821 61.909 40.8042 62.4217 41.0483C62.9393 41.2876 63.3299 41.6343 63.5936 42.0884C63.8621 42.5376 63.9964 43.0747 63.9964 43.6997C63.9964 44.0513 63.9402 44.3955 63.8279 44.7324C63.7156 45.0645 63.5545 45.3965 63.3445 45.7285C63.1395 46.0557 62.8904 46.3877 62.5975 46.7246C62.3045 47.0615 61.9798 47.4106 61.6233 47.772L59.7703 49.8521H64.3406ZM65.5274 50.4819C65.5274 50.1694 65.6349 49.9082 65.8497 49.6982C66.0694 49.4883 66.36 49.3833 66.7213 49.3833C67.0826 49.3833 67.3707 49.4883 67.5855 49.6982C67.8053 49.9082 67.9151 50.1694 67.9151 50.4819C67.9151 50.7944 67.8053 51.0557 67.5855 51.2656C67.3707 51.4756 67.0826 51.5806 66.7213 51.5806C66.36 51.5806 66.0694 51.4756 65.8497 51.2656C65.6349 51.0557 65.5274 50.7944 65.5274 50.4819ZM65.5274 44.4395C65.5274 44.127 65.6349 43.8657 65.8497 43.6558C66.0694 43.4458 66.36 43.3408 66.7213 43.3408C67.0826 43.3408 67.3707 43.4458 67.5855 43.6558C67.8053 43.8657 67.9151 44.127 67.9151 44.4395C67.9151 44.752 67.8053 45.0132 67.5855 45.2231C67.3707 45.4331 67.0826 45.5381 66.7213 45.5381C66.36 45.5381 66.0694 45.4331 65.8497 45.2231C65.6349 45.0132 65.5274 44.752 65.5274 44.4395ZM76.7631 47.5156V49.1709H69.08L68.9774 47.8892L73.4232 40.8359H75.1005L73.2841 43.8755L71.0722 47.5156H76.7631ZM75.5546 40.8359V51.5H73.4452V40.8359H75.5546ZM84.7907 48.5776C84.7907 49.2466 84.6345 49.8105 84.322 50.2695C84.0095 50.7236 83.5798 51.0679 83.0329 51.3022C82.4909 51.5317 81.8757 51.6465 81.1872 51.6465C80.4987 51.6465 79.8811 51.5317 79.3342 51.3022C78.7873 51.0679 78.3552 50.7236 78.0378 50.2695C77.7204 49.8105 77.5617 49.2466 77.5617 48.5776C77.5617 48.1284 77.6521 47.7231 77.8327 47.3618C78.0134 46.9956 78.2648 46.6831 78.5871 46.4243C78.9143 46.1606 79.2976 45.9604 79.737 45.8237C80.1765 45.6821 80.655 45.6113 81.1726 45.6113C81.8659 45.6113 82.486 45.7334 83.0329 45.9775C83.5798 46.2217 84.0095 46.5659 84.322 47.0103C84.6345 47.4546 84.7907 47.9771 84.7907 48.5776ZM82.6667 48.4385C82.6667 48.1113 82.6032 47.8306 82.4763 47.5962C82.3542 47.3569 82.1809 47.1738 81.9562 47.0469C81.7316 46.9199 81.4704 46.8564 81.1726 46.8564C80.8747 46.8564 80.6135 46.9199 80.3889 47.0469C80.1643 47.1738 79.9885 47.3569 79.8615 47.5962C79.7395 47.8306 79.6784 48.1113 79.6784 48.4385C79.6784 48.7607 79.7395 49.0391 79.8615 49.2734C79.9885 49.5078 80.1643 49.6885 80.3889 49.8154C80.6184 49.9375 80.8845 49.9985 81.1872 49.9985C81.4899 49.9985 81.7512 49.9375 81.9709 49.8154C82.1955 49.6885 82.3664 49.5078 82.4836 49.2734C82.6057 49.0391 82.6667 48.7607 82.6667 48.4385ZM84.5637 43.6631C84.5637 44.2051 84.4196 44.686 84.1315 45.106C83.8435 45.521 83.4431 45.8457 82.9304 46.0801C82.4226 46.3145 81.8415 46.4316 81.1872 46.4316C80.528 46.4316 79.9421 46.3145 79.4294 46.0801C78.9167 45.8457 78.5163 45.521 78.2282 45.106C77.9401 44.686 77.7961 44.2051 77.7961 43.6631C77.7961 43.0186 77.9401 42.4766 78.2282 42.0371C78.5212 41.5928 78.9216 41.2559 79.4294 41.0264C79.9421 40.7969 80.5231 40.6821 81.1726 40.6821C81.8317 40.6821 82.4152 40.7969 82.923 41.0264C83.4357 41.2559 83.8361 41.5928 84.1242 42.0371C84.4172 42.4766 84.5637 43.0186 84.5637 43.6631ZM82.4543 43.7583C82.4543 43.4702 82.403 43.2212 82.3005 43.0112C82.1979 42.7964 82.0515 42.6304 81.861 42.5132C81.6755 42.396 81.446 42.3374 81.1726 42.3374C80.9089 42.3374 80.6818 42.3936 80.4914 42.5059C80.3059 42.6182 80.1618 42.7817 80.0593 42.9966C79.9616 43.2065 79.9128 43.4604 79.9128 43.7583C79.9128 44.0464 79.9616 44.3003 80.0593 44.52C80.1618 44.7349 80.3083 44.9033 80.4987 45.0254C80.6892 45.1475 80.9187 45.2085 81.1872 45.2085C81.4558 45.2085 81.6828 45.1475 81.8684 45.0254C82.0588 44.9033 82.2028 44.7349 82.3005 44.52C82.403 44.3003 82.4543 44.0464 82.4543 43.7583Z" fill="#fff"/><g clip-path="url(#clip0_371_69085)"><path d="M332 39.8334C328.092 39.8334 324.558 41.4167 322 43.9834L332 54L342 43.9834C339.442 41.4167 335.908 39.8334 332 39.8334Z" fill="#fff"/></g><g clip-path="url(#clip1_371_69085)"><path d="M348.666 54.8333H365.333V38.1666L348.666 54.8333Z" fill="#fff"/></g><g clip-path="url(#clip2_371_69085)"><path d="M386.167 40.6666V54C386.167 54.4583 385.792 54.8333 385.334 54.8333H378.667C378.209 54.8333 377.834 54.4583 377.834 54V40.6666C377.834 40.2083 378.209 39.8333 378.667 39.8333H380.334V38.1666H383.667V39.8333H385.334C385.792 39.8333 386.167 40.2083 386.167 40.6666ZM384.501 41.5H379.501V44.8333H384.501V41.5Z" fill="#fff"/></g><rect width="367" height="45" transform="translate(40 83.5)" fill="#004F83"/><path d="M55.6914 111H57.5811V100.431H55.6987L52.9375 102.372V104.152L55.5669 102.292H55.6914V111ZM60.2181 111H67.5569V109.433H62.7742V109.279L64.8909 107.228C66.8172 105.375 67.3958 104.423 67.3958 103.222V103.2C67.3958 101.42 65.9163 100.167 63.8582 100.167C61.6536 100.167 60.1155 101.544 60.1155 103.515L60.1229 103.537L61.8807 103.544L61.888 103.515C61.888 102.423 62.6424 101.684 63.763 101.684C64.8616 101.684 65.5281 102.387 65.5281 103.361V103.383C65.5281 104.196 65.1253 104.73 63.6897 106.181L60.2181 109.726V111ZM70.714 104.152C71.3878 104.152 71.8785 103.639 71.8785 102.995C71.8785 102.343 71.3878 101.837 70.714 101.837C70.0475 101.837 69.5494 102.343 69.5494 102.995C69.5494 103.639 70.0475 104.152 70.714 104.152ZM70.714 109.586C71.3878 109.586 71.8785 109.081 71.8785 108.429C71.8785 107.777 71.3878 107.272 70.714 107.272C70.0475 107.272 69.5494 107.777 69.5494 108.429C69.5494 109.081 70.0475 109.586 70.714 109.586ZM78.8661 111H80.6752V108.971H82.0961V107.411H80.6752V100.431H78.0019C76.5663 102.614 75.0648 105.045 73.6952 107.426V108.971H78.8661V111ZM75.453 107.455V107.345C76.4784 105.551 77.7016 103.595 78.7855 101.94H78.8954V107.455H75.453ZM87.7141 111.212C90.1457 111.212 91.8376 109.953 91.8376 108.144V108.129C91.8376 106.774 90.8562 105.727 89.4426 105.441V105.397C90.6511 105.075 91.4567 104.188 91.4567 103.053V103.039C91.4567 101.413 89.904 100.219 87.7141 100.219C85.5241 100.219 83.9714 101.413 83.9714 103.039V103.053C83.9714 104.188 84.7771 105.075 85.9855 105.397V105.441C84.5793 105.727 83.5905 106.774 83.5905 108.129V108.144C83.5905 109.953 85.2824 111.212 87.7141 111.212ZM87.7141 104.796C86.6081 104.796 85.8391 104.152 85.8391 103.229V103.214C85.8391 102.292 86.6081 101.647 87.7141 101.647C88.82 101.647 89.5891 102.292 89.5891 103.214V103.229C89.5891 104.152 88.82 104.796 87.7141 104.796ZM87.7141 109.77C86.447 109.77 85.5461 109.037 85.5461 108.019V108.004C85.5461 106.979 86.4323 106.239 87.7141 106.239C88.9885 106.239 89.882 106.979 89.882 108.004V108.019C89.882 109.037 88.9812 109.77 87.7141 109.77Z" fill="#fff"/><g clip-path="url(#clip3_371_69085)"><path d="M330.855 105.274H329.289C328.878 105.274 328.606 105.562 328.606 105.982V110.917C328.606 111.337 328.878 111.626 329.289 111.626H330.855C331.266 111.626 331.537 111.337 331.537 110.917V105.982C331.537 105.562 331.266 105.274 330.855 105.274ZM325.999 107.304H324.433C324.021 107.304 323.75 107.584 323.75 108.004V110.917C323.75 111.337 324.021 111.626 324.433 111.626H325.999C326.41 111.626 326.681 111.337 326.681 110.917V108.004C326.681 107.584 326.41 107.304 325.999 107.304ZM335.711 102.929H334.145C333.734 102.929 333.463 103.217 333.463 103.637V110.917C333.463 111.337 333.734 111.626 334.145 111.626H335.711C336.114 111.626 336.394 111.337 336.394 110.917V103.637C336.394 103.217 336.114 102.929 335.711 102.929ZM340.576 100.365H339.001C338.599 100.365 338.319 100.654 338.319 101.074V110.917C338.319 111.337 338.599 111.626 339.001 111.626H340.576C340.979 111.626 341.25 111.337 341.25 110.917V101.074C341.25 100.654 340.979 100.365 340.576 100.365Z" fill="#fff"/></g><g clip-path="url(#clip4_371_69085)"><path opacity=".85" d="M358.501 108.564C357.398 108.564 356.462 109.141 355.972 109.806C355.893 109.929 355.928 110.069 356.051 110.183L357.897 111.959C358.195 112.239 358.335 112.326 358.501 112.326C358.667 112.326 358.816 112.248 359.105 111.959L360.96 110.183C361.073 110.069 361.1 109.903 360.995 109.763C360.505 109.124 359.568 108.573 358.492 108.573L358.501 108.564ZM358.501 104.119C356.13 104.119 354.003 105.178 352.857 106.578C352.743 106.718 352.752 106.866 352.883 107.006L354.065 108.188C354.231 108.345 354.441 108.328 354.59 108.161C355.5 107.146 356.987 106.411 358.51 106.42C360.041 106.42 361.537 107.173 362.465 108.188C362.605 108.345 362.788 108.336 362.955 108.188L364.136 107.015C364.258 106.893 364.276 106.726 364.162 106.586C363.016 105.178 360.89 104.128 358.518 104.128L358.501 104.119ZM367.172 103.515C365.387 101.31 362.027 99.6913 358.501 99.6913C354.975 99.6913 351.606 101.31 349.83 103.515C349.725 103.646 349.725 103.813 349.856 103.953L350.906 105.02C351.055 105.169 351.273 105.169 351.413 105.02C353.286 103.034 355.745 101.984 358.501 101.984C361.257 101.984 363.751 103.043 365.606 105.02C365.746 105.16 365.947 105.151 366.096 105.003L367.146 103.953C367.286 103.813 367.277 103.646 367.172 103.515Z" fill="#fff"/></g><g clip-path="url(#clip5_371_69085)"><path opacity=".85" d="M385.594 103.637H378.445C378.025 103.637 377.78 103.699 377.614 103.865C377.456 104.031 377.386 104.276 377.386 104.687V107.33C377.386 107.741 377.448 107.977 377.614 108.144C377.78 108.31 378.025 108.371 378.428 108.371H385.594C386.005 108.371 386.241 108.31 386.408 108.144C386.574 107.977 386.635 107.741 386.635 107.33V104.679C386.635 104.267 386.574 104.031 386.408 103.865C386.241 103.699 386.005 103.637 385.594 103.637ZM388.192 102.001H378.891C377.894 102.001 377.045 102.097 376.441 102.701C375.837 103.305 375.75 104.154 375.75 105.134V106.849C375.75 107.864 375.837 108.695 376.441 109.299C377.045 109.902 377.894 109.999 378.9 109.999H388.192C389.207 109.999 390.056 109.902 390.66 109.299C391.264 108.695 391.351 107.855 391.351 106.849V105.151C391.351 104.136 391.264 103.305 390.66 102.701C390.056 102.097 389.207 102.001 388.192 102.001ZM390.398 107.006C390.398 107.619 390.319 108.249 389.96 108.607C389.601 108.966 388.962 109.045 388.359 109.045H378.743C378.13 109.045 377.491 108.966 377.132 108.607C376.774 108.249 376.704 107.61 376.704 107.006V105.002C376.704 104.381 376.782 103.751 377.132 103.392C377.491 103.034 378.139 102.955 378.76 102.955H388.359C388.971 102.955 389.61 103.034 389.96 103.392C390.319 103.751 390.398 104.381 390.398 104.985V107.006ZM392.156 104.469V107.522C392.62 107.496 393.25 106.892 393.25 105.991C393.25 105.09 392.62 104.495 392.156 104.469Z" fill="#fff"/></g><defs><clipPath id="clip0_371_69085"><rect width="20" height="20" fill="#fff" transform="translate(322 36.5)"/></clipPath><clipPath id="clip1_371_69085"><rect width="20" height="20" fill="#fff" transform="translate(347 36.5)"/></clipPath><clipPath id="clip2_371_69085"><rect width="20" height="20" fill="#fff" transform="translate(372 36.5)"/></clipPath><clipPath id="clip3_371_69085"><rect width="21" height="21" fill="#fff" transform="translate(322 95.5)"/></clipPath><clipPath id="clip4_371_69085"><rect width="21" height="21" fill="#fff" transform="translate(348 95.5)"/></clipPath><clipPath id="clip5_371_69085"><rect width="21" height="21" fill="#fff" transform="translate(374 95.5)"/></clipPath></defs></svg>
